X: 11330
T: Eamon Coyne's
R: reel
M: 4/4
K: Gmajor
G3A BEGA|BE E2 B2 AB|GE E2 A3B|AF F2 dBAF|
E3B G3A|(3Bcd gf eB B2|BAdB A3B|GABG AGFD|
E3G B2 GA|BE E2 B2 AB|GE E2 A3B|AF F2 dBAF|
E3B G3A|B2 gf eB B2|BAdB A3B|GABG AGFD||
E3B e3f|g2 fg eB B2|dcdB ABde|f3A f3A|
Af f2 e3f|g2 fe dB B2|BAdB A3B|GABG AGFD|
e3B e3f|g2 fe dB B2|dcdB ABde|fA A2 A2 fA|
A2 fA e3f|g2 fe dB B2|BAdB A3B|G3B e3B||
e3B B2 EG|BE E2 B2 AB|GE E2 A3G|GAdA A3G|
GAdA G3A|(3Bcd gf eB B2|B2 eB B2 dB|A2 df f2 d2|
e3B BEGA|BE E2 B2 AB|GE E2 A3B|FAdA F3A|
AGFA G3A|B2 gf eB B2|BAdB A3B|g3B F3B||
e3B e3f|g2 fe dB B2|dcdB ABde|f3A f3A|
Af f2 e3f|g2 fe dB B2|BAdB A3B|g3B F3B|
e3B e3f|g2 fe dB B2|dcdB ABde|f3B a3b|
agfd e3f|g2 fe dB B2|BAdB A3B|G3B FEDB||
e3B BEGA|BE E2 B2 AB|GE E2 AF F2|F3G AGGA|
dAfA G3A|B2 gf eB B2|B2 dB B2 dA|A2 dF F2 dB|
e3B BEGA|BE E2 B2 AB|GE E2 A3B|A3B A3B|
A3B G3A|B2 gf eB B2|BAdB A3B|G3B f3B||
E3B e3f|g2 fe dB B2|dcdB ABde|fA A2 A2 fA|
A2 fA e3f|g2 fe dB B2|BAdB A3B|g3B f3B|
e3B e3f|g2 fe dB B2|dcdB ABde|f3B f3B|
f3B e3f|g2 fe dB B2|BAdB A3B|G3B F3B|e4||

